svgs/light/apartment.svg

<svg xmlns="http://www.w3.org/2000/svg" viewBox="0 0 576 512"><!--! Font Awesome Pro 6.4.2 by @fontawesome - https://fontawesome.com License - https://fontawesome.com/license (Commercial License) Copyright 2023 Fonticons, Inc. --><path d="M128 128H64c-17.7 0-32 14.3-32 32V448c0 17.7 14.3 32 32 32H192h32V416c0-35.3 28.7-64 64-64s64 28.7 64 64v64h32H512c17.7 0 32-14.3 32-32V224c0-17.7-14.3-32-32-32H448c-17.7 0-32-14.3-32-32V64c0-17.7-14.3-32-32-32H192c-17.7 0-32 14.3-32 32V96c0 17.7-14.3 32-32 32zM320 416c0-17.7-14.3-32-32-32s-32 14.3-32 32v64h64V416zm-96 96H192 64c-35.3 0-64-28.7-64-64V160c0-35.3 28.7-64 64-64H96h32V64c0-35.3 28.7-64 64-64H384c35.3 0 64 28.7 64 64v64 32h32 32c35.3 0 64 28.7 64 64V448c0 35.3-28.7 64-64 64H384 352 336 240 224zm288-88c0 13.3-10.7 24-24 24H440c-13.3 0-24-10.7-24-24V376c0-13.3 10.7-24 24-24h48c13.3 0 24 10.7 24 24v48zm-32-8V384H448v32h32zM136 384H88c-13.3 0-24-10.7-24-24V312c0-13.3 10.7-24 24-24h48c13.3 0 24 10.7 24 24v48c0 13.3-10.7 24-24 24zm-8-64H96v32h32V320zm384-24c0 13.3-10.7 24-24 24H440c-13.3 0-24-10.7-24-24V248c0-13.3 10.7-24 24-24h48c13.3 0 24 10.7 24 24v48zm-32-8V256H448v32h32zM136 256H88c-13.3 0-24-10.7-24-24V184c0-13.3 10.7-24 24-24h48c13.3 0 24 10.7 24 24v48c0 13.3-10.7 24-24 24zm-8-64H96v32h32V192zm208 72c0 13.3-10.7 24-24 24H264c-13.3 0-24-10.7-24-24V216c0-13.3 10.7-24 24-24h48c13.3 0 24 10.7 24 24v48zm-32-8V224H272v32h32zm8-96H264c-13.3 0-24-10.7-24-24V88c0-13.3 10.7-24 24-24h48c13.3 0 24 10.7 24 24v48c0 13.3-10.7 24-24 24zm-8-64H272v32h32V96z"/></svg>

<svg xmlns="http://www.w3.org/2000/svg" viewBox="0 0 576 512"><!--! Font Awesome Pro 6.1.1 by @fontawesome - https://fontawesome.com License - https://fontawesome.com/license (Commercial License) Copyright 2022 Fonticons, Inc. --><path d="M384 264C384 277.3 373.3 288 360 288H216C202.7 288 192 277.3 192 264V216C192 202.7 202.7 192 216 192H360C373.3 192 384 202.7 384 216V264zM352 256V224H304V256H352zM272 256V224H224V256H272zM440 448C426.7 448 416 437.3 416 424V376C416 362.7 426.7 352 440 352H488C501.3 352 512 362.7 512 376V424C512 437.3 501.3 448 488 448H440zM448 384V416H480V384H448zM160 360C160 373.3 149.3 384 136 384H88C74.75 384 64 373.3 64 360V312C64 298.7 74.75 288 88 288H136C149.3 288 160 298.7 160 312V360zM128 352V320H96V352H128zM440 320C426.7 320 416 309.3 416 296V248C416 234.7 426.7 224 440 224H488C501.3 224 512 234.7 512 248V296C512 309.3 501.3 320 488 320H440zM448 256V288H480V256H448zM160 232C160 245.3 149.3 256 136 256H88C74.75 256 64 245.3 64 232V184C64 170.7 74.75 160 88 160H136C149.3 160 160 170.7 160 184V232zM128 224V192H96V224H128zM216 160C202.7 160 192 149.3 192 136V88C192 74.75 202.7 64 216 64H360C373.3 64 384 74.75 384 88V136C384 149.3 373.3 160 360 160H216zM304 96V128H352V96H304zM224 96V128H272V96H224zM64 512C28.65 512 0 483.3 0 448V160C0 124.7 28.65 96 64 96H128V64C128 28.65 156.7 0 192 0H384C419.3 0 448 28.65 448 64V160H512C547.3 160 576 188.7 576 224V448C576 483.3 547.3 512 512 512H64zM64 128C46.33 128 32 142.3 32 160V448C32 465.7 46.33 480 64 480H224V416C224 380.7 252.7 352 288 352C323.3 352 352 380.7 352 416V480H512C529.7 480 544 465.7 544 448V224C544 206.3 529.7 192 512 192H416V64C416 46.33 401.7 32 384 32H192C174.3 32 160 46.33 160 64V128H64zM320 416C320 398.3 305.7 384 288 384C270.3 384 256 398.3 256 416V480H320V416z"/></svg>
